images/offer-img.svg

<svg width="52" height="51" viewBox="0 0 52 51" fill="none" xmlns="http://www.w3.org/2000/svg">
<path d="M51.9044 12.0824C51.7254 11.4296 51.2887 10.873 50.6912 10.5356C50.0933 10.1965 49.3825 10.1048 48.7156 10.2803C48.0496 10.4563 47.4821 10.8842 47.1381 11.4702L46.7048 12.2098C46.2931 11.9778 45.7671 12.1144 45.5264 12.5161L43.3252 16.1963L42.5711 15.7713C42.3714 15.658 42.1336 15.6273 41.911 15.6862C41.688 15.7456 41.4985 15.8892 41.3838 16.0859C41.149 16.4922 41.292 17.0085 41.7045 17.2418L42.4586 17.6668L35.0925 30.1873L33.2726 34.9561L32.406 36.5452C31.8986 37.411 31.9528 38.4872 32.5448 39.2994L30.5949 41.6452L30.0491 40.3026C29.8028 39.7041 29.2328 39.294 28.5774 39.2438C27.9215 39.1932 27.2932 39.5111 26.9551 40.0644L26.6432 40.5827L26.3487 37.1827C26.281 36.3784 25.6459 35.7318 24.8292 35.6346C24.0121 35.5379 23.2386 36.0181 22.9775 36.7835L20.8457 43.0564C20.6968 43.5 20.9405 43.9782 21.3916 44.1276C21.4762 44.1662 21.5672 44.1894 21.6603 44.1952C22.0326 44.1965 22.3644 43.9636 22.4837 43.6175L24.6066 37.3446L24.91 40.7952C24.9726 41.5315 25.5121 42.1437 26.2459 42.3105C26.9796 42.4774 27.7387 42.1603 28.1251 41.5265L28.4458 41.0077L28.9832 42.3425C29.2113 42.9049 29.7271 43.3062 30.3377 43.3955C30.9483 43.4847 31.561 43.2485 31.9469 42.7758L33.9661 40.2686C34.1895 40.3258 34.4197 40.3545 34.6508 40.3536C35.5796 40.3607 36.4419 39.8809 36.9125 39.0952L37.7791 37.6758L41.0808 33.7404L48.5248 21.0668L49.2788 21.4918C49.4798 21.6047 49.6262 21.791 49.6859 22.0106C49.7459 22.2285 49.7146 22.4609 49.5995 22.6564L46.1332 28.547C46.0024 28.7404 45.958 28.9778 46.0104 29.2044C46.0629 29.4306 46.2072 29.6261 46.4103 29.7452C46.61 29.859 46.8478 29.8897 47.0704 29.8307C47.2934 29.7714 47.483 29.6278 47.5977 29.4311L51.064 23.5404C51.4097 22.954 51.5033 22.2567 51.3238 21.6026C51.1444 20.9493 50.7082 20.3927 50.1107 20.0553L49.3567 19.6303L51.5231 15.9498C51.7597 15.5459 51.6205 15.0304 51.2113 14.7939L51.6446 14.0543C51.9996 13.4587 52.0935 12.7473 51.9044 12.0824ZM48.6373 12.3202C48.752 12.1235 48.9424 11.9795 49.1662 11.921C49.3888 11.867 49.6241 11.8973 49.8247 12.0061C50.0256 12.1185 50.1721 12.3053 50.2321 12.5244C50.2871 12.7427 50.2563 12.9735 50.1454 13.1702L49.7121 13.9098L48.204 13.0598L48.6373 12.3202ZM36.8257 36.0526L36.3924 35.8061L35.1099 35.0748L36.3404 31.8449L39.0701 33.3918L36.8257 36.0526ZM34.2259 38.5088C33.8599 38.2585 33.7473 37.7771 33.9661 37.3952L34.3994 36.6561L35.9071 37.5061L35.4738 38.2369C35.3523 38.4436 35.1484 38.5905 34.911 38.6424C34.6736 38.6939 34.4252 38.6457 34.2259 38.5088ZM40.0581 31.9981L37.0597 30.2981L43.9925 18.5168L46.9909 20.2168L40.0581 31.9981ZM47.8575 18.7463L44.8591 17.0463L46.5923 14.1053L49.5907 15.8053L47.8575 18.7463Z" fill="#FFBB01"/>
<path d="M13.6741 38.0884L10.6071 41.0891L8.77002 39.287C8.43197 38.9575 7.88619 38.9575 7.54814 39.287C7.38398 39.4468 7.29175 39.6639 7.29175 39.8905C7.29175 40.1171 7.38398 40.3346 7.54814 40.494L9.38519 42.2961C9.71013 42.6123 10.1493 42.7895 10.6071 42.7891C11.0674 42.7916 11.5104 42.6144 11.8374 42.2961L14.8959 39.287C15.1904 38.9496 15.1705 38.447 14.8507 38.1332C14.5304 37.819 14.018 37.7995 13.6741 38.0884Z" fill="#FFBB01"/>
<path d="M3.466 40.3749C3.466 44.3655 6.76398 47.5999 10.8321 47.5999C14.9002 47.5999 18.1981 44.3655 18.1981 40.3749C18.1981 39.9055 17.8101 39.5249 17.3315 39.5249C16.853 39.5249 16.4649 39.9055 16.4649 40.3749C16.4649 43.4263 13.943 45.8999 10.8321 45.8999C7.72113 45.8999 5.1992 43.4263 5.1992 40.3749C5.1992 37.3236 7.72113 34.8499 10.8321 34.8499C12.0516 34.8466 13.2385 35.2347 14.2117 35.9552C14.5947 36.237 15.138 36.1606 15.4249 35.785C15.7122 35.4094 15.6347 34.8769 15.2518 34.5951C13.0197 32.9532 10.0332 32.6892 7.53791 33.9128C5.04221 35.1367 3.466 37.6386 3.466 40.3749Z" fill="#FFBB01"/>
<path d="M31.1975 6.79985C31.6761 6.79985 32.0641 6.41968 32.0641 5.94985C32.0641 5.48044 31.6761 5.09985 31.1975 5.09985H8.66604C8.18746 5.09985 7.79944 5.48044 7.79944 5.94985V9.34985C7.79944 9.81968 8.18746 10.1999 8.66604 10.1999H31.1975C31.6761 10.1999 32.0641 9.81968 32.0641 9.34985C32.0641 8.88044 31.6761 8.49985 31.1975 8.49985H9.53263V6.79985H31.1975Z" fill="#FFBB01"/>
<path d="M11.2659 11.9001C10.7873 11.9001 10.3993 12.2807 10.3993 12.7501C10.3993 13.22 10.7873 13.6001 11.2659 13.6001H28.5978C29.0764 13.6001 29.4644 13.22 29.4644 12.7501C29.4644 12.2807 29.0764 11.9001 28.5978 11.9001H11.2659Z" fill="#FFBB01"/>
<path d="M33.7974 17.8499H14.7323C14.2537 17.8499 13.8657 18.2304 13.8657 18.6999C13.8657 19.1697 14.2537 19.5499 14.7323 19.5499H33.7974C34.276 19.5499 34.664 19.1697 34.664 18.6999C34.664 18.2304 34.276 17.8499 33.7974 17.8499Z" fill="#FFBB01"/>
<path d="M25.1305 23.8C25.1305 23.3305 24.7425 22.95 24.2639 22.95H6.93203C6.45345 22.95 6.06543 23.3305 6.06543 23.8C6.06543 24.2698 6.45345 24.65 6.93203 24.65H24.2639C24.7425 24.65 25.1305 24.2698 25.1305 23.8Z" fill="#FFBB01"/>
<path d="M33.7965 22.95H27.7311C27.2526 22.95 26.8646 23.3305 26.8646 23.8C26.8646 24.2698 27.2526 24.65 27.7311 24.65H33.7965C34.275 24.65 34.663 24.2698 34.663 23.8C34.663 23.3305 34.275 22.95 33.7965 22.95Z" fill="#FFBB01"/>
<path d="M15.598 28.8999C16.0766 28.8999 16.4646 28.5198 16.4646 28.0499C16.4646 27.5805 16.0766 27.2 15.598 27.2H6.93203C6.45345 27.2 6.06543 27.5805 6.06543 28.0499C6.06543 28.5198 6.45345 28.8999 6.93203 28.8999H15.598Z" fill="#FFBB01"/>
<path d="M19.0651 28.8999H25.1305C25.609 28.8999 25.997 28.5198 25.997 28.0499C25.997 27.5805 25.609 27.2 25.1305 27.2H19.0651C18.5866 27.2 18.1986 27.5805 18.1986 28.0499C18.1986 28.5198 18.5866 28.8999 19.0651 28.8999Z" fill="#FFBB01"/>
<path d="M38.9968 39.1C38.5182 39.1 38.1302 39.4806 38.1302 39.95V48.45C38.1302 48.9198 37.7422 49.3 37.2636 49.3H2.59979C2.12121 49.3 1.73319 48.9198 1.73319 48.45V2.55C1.73319 2.08059 2.12121 1.7 2.59979 1.7H37.2636C37.7422 1.7 38.1302 2.08059 38.1302 2.55V18.5132C38.1302 18.9826 38.5182 19.3632 38.9968 19.3632C39.4754 19.3632 39.8634 18.9826 39.8634 18.5132V2.55C39.8634 1.14177 38.6994 0 37.2636 0H2.59979C1.16407 0 0 1.14177 0 2.55V48.45C0 49.8586 1.16407 51 2.59979 51H37.2636C38.6994 51 39.8634 49.8586 39.8634 48.45V39.95C39.8634 39.4806 39.4754 39.1 38.9968 39.1Z" fill="#FFBB01"/>
</svg>

<svg width="52" height="51" fill="none" xmlns="http://www.w3.org/2000/svg"><path d="M51.904 12.082a2.557 2.557 0 00-1.213-1.546 2.645 2.645 0 00-1.975-.256 2.595 2.595 0 00-1.578 1.19l-.433.74a.876.876 0 00-1.179.306l-2.2 3.68-.755-.425a.883.883 0 00-.66-.085.867.867 0 00-.527.4.842.842 0 00.32 1.156l.755.425-7.367 12.52-1.82 4.77-.866 1.588a2.51 2.51 0 00.139 2.754l-1.95 2.346-.546-1.342a1.73 1.73 0 00-1.472-1.06 1.743 1.743 0 00-1.622.821l-.312.519-.294-3.4a1.716 1.716 0 00-1.52-1.548 1.736 1.736 0 00-1.852 1.148l-2.131 6.273a.846.846 0 00.546 1.072.762.762 0 00.268.067.865.865 0 00.824-.578l2.123-6.272.303 3.45a1.71 1.71 0 001.336 1.515 1.747 1.747 0 001.88-.784l.32-.518.537 1.334c.228.563.744.964 1.355 1.053.61.09 1.223-.147 1.609-.62l2.02-2.506c.223.057.453.086.684.085a2.61 2.61 0 002.261-1.259l.867-1.42 3.302-3.935 7.444-12.673.754.425c.2.113.347.299.407.519.06.218.029.45-.087.645l-3.466 5.891a.836.836 0 00-.123.657.85.85 0 001.06.627.867.867 0 00.528-.4l3.466-5.89c.346-.587.44-1.284.26-1.938a2.558 2.558 0 00-1.213-1.548l-.754-.425 2.166-3.68a.841.841 0 00-.312-1.156l.434-.74a2.507 2.507 0 00.26-1.972zm-3.267.238a.864.864 0 01.53-.399.925.925 0 01.658.085c.2.112.347.3.407.518a.877.877 0 01-.087.646l-.433.74-1.508-.85.433-.74zM36.826 36.053l-.434-.247-1.282-.731 1.23-3.23 2.73 1.547-2.244 2.66zm-2.6 2.456a.84.84 0 01-.26-1.114l.433-.739 1.508.85-.433.73a.866.866 0 01-.563.406.881.881 0 01-.685-.133zm5.832-6.51l-2.998-1.7 6.932-11.782 2.999 1.7-6.933 11.781zm7.8-13.253l-2.999-1.7 1.733-2.94 2.999 1.7-1.733 2.94zM13.674 38.088l-3.067 3.001-1.837-1.802a.879.879 0 00-1.222 0 .842.842 0 000 1.207l1.837 1.802a1.75 1.75 0 001.222.493 1.75 1.75 0 001.23-.493l3.059-3.009a.838.838 0 00-.045-1.154.879.879 0 00-1.177-.045z" fill="#FFBB01"/><path d="M3.466 40.375c0 3.99 3.298 7.225 7.366 7.225s7.366-3.235 7.366-7.225c0-.47-.388-.85-.867-.85a.859.859 0 00-.866.85c0 3.051-2.522 5.525-5.633 5.525-3.11 0-5.633-2.474-5.633-5.525s2.522-5.525 5.633-5.525a5.656 5.656 0 013.38 1.105.878.878 0 001.213-.17.84.84 0 00-.173-1.19 7.486 7.486 0 00-7.714-.682c-2.496 1.224-4.072 3.726-4.072 6.462zM31.198 6.8c.478 0 .866-.38.866-.85s-.388-.85-.866-.85H8.666a.858.858 0 00-.867.85v3.4c0 .47.388.85.867.85h22.532c.478 0 .866-.38.866-.85s-.388-.85-.866-.85H9.533V6.8h21.665zM11.266 11.9a.858.858 0 00-.867.85c0 .47.388.85.867.85h17.332c.478 0 .866-.38.866-.85s-.388-.85-.866-.85H11.266zM33.797 17.85H14.732a.858.858 0 00-.866.85c0 .47.388.85.866.85h19.065c.479 0 .867-.38.867-.85s-.388-.85-.867-.85zM25.13 23.8c0-.47-.387-.85-.866-.85H6.932a.858.858 0 00-.867.85c0 .47.388.85.867.85h17.332c.479 0 .867-.38.867-.85zM33.797 22.95H27.73a.858.858 0 00-.866.85c0 .47.388.85.866.85h6.066c.478 0 .866-.38.866-.85s-.388-.85-.866-.85zM15.598 28.9c.479 0 .867-.38.867-.85s-.388-.85-.867-.85H6.932a.858.858 0 00-.867.85c0 .47.388.85.867.85h8.666zM19.065 28.9h6.066c.478 0 .866-.38.866-.85s-.388-.85-.866-.85h-6.066a.858.858 0 00-.866.85c0 .47.388.85.866.85z" fill="#FFBB01"/><path d="M38.997 39.1a.858.858 0 00-.867.85v8.5c0 .47-.388.85-.866.85H2.6a.858.858 0 01-.867-.85V2.55c0-.47.388-.85.867-.85h34.664c.478 0 .866.38.866.85v15.963c0 .47.388.85.867.85.478 0 .866-.38.866-.85V2.55c0-1.408-1.164-2.55-2.6-2.55H2.6C1.164 0 0 1.142 0 2.55v45.9C0 49.859 1.164 51 2.6 51h34.664c1.435 0 2.6-1.141 2.6-2.55v-8.5c0-.47-.389-.85-.867-.85z" fill="#FFBB01"/></svg>
